X:1908
T:Bourrée de Saint Pierre
C:F. Paris
M:3/8
L:1/8
K:C
f|e2d|c2d|e/f/ed|g2f|eed|c2d|e/f/ed|g2:|
|:g|abc'|g2f|d/f/ed|ecg|aba|g2f|d/f/ed|c2:|


